static/logos/godaddy-wordmark-color.svg

<svg width="100" height="21" viewBox="0 0 100 21" fill="none" xmlns="http://www.w3.org/2000/svg">
<path d="M18.5687 0.87771C16.3319 -0.521134 13.3861 -0.191355 10.7596 1.46479C8.14092 -0.190147 5.19394 -0.521134 2.9596 0.87771C-0.575343 3.09254 -1.00426 8.79664 1.99996 13.6177C4.21502 17.1734 7.67947 19.256 10.7638 19.2173C13.8476 19.256 17.312 17.1734 19.5271 13.6183C22.5301 8.79604 22.1036 3.09254 18.5687 0.877106V0.87771ZM3.62646 12.6012C3.00636 11.6159 2.53861 10.5421 2.23912 9.41634C1.97283 8.4395 1.87103 7.42495 1.93791 6.4145C2.07225 4.63454 2.79514 3.24656 3.97466 2.50668C5.15357 1.76739 6.71201 1.72451 8.37164 2.38406C8.62405 2.48614 8.87104 2.60029 9.11143 2.72713C8.18896 3.56969 7.38701 4.53595 6.72827 5.59851C4.90357 8.52605 4.34634 11.7846 4.98309 14.3812C4.47591 13.8319 4.02149 13.236 3.62586 12.6012H3.62646ZM19.2909 9.41634C18.9912 10.5417 18.5237 11.6152 17.9042 12.6006C17.5086 13.2368 17.0539 13.8342 16.5463 14.3847C17.1163 12.0564 16.7288 9.20491 15.3331 6.52987C15.311 6.48571 15.2798 6.44671 15.2416 6.41543C15.2035 6.38414 15.1592 6.36127 15.1116 6.34828C15.064 6.33529 15.0143 6.33248 14.9656 6.34004C14.9169 6.3476 14.8703 6.36536 14.8288 6.39215L10.4764 9.1192C10.4369 9.14393 10.4025 9.17634 10.3754 9.21438C10.3483 9.2525 10.3289 9.29554 10.3184 9.34116C10.3079 9.38679 10.3064 9.43402 10.3141 9.48018C10.3218 9.52634 10.3385 9.57054 10.3632 9.61018L11.0018 10.634C11.0265 10.6738 11.0588 10.7083 11.0969 10.7355C11.1349 10.7628 11.1779 10.7822 11.2235 10.7928C11.269 10.8033 11.3162 10.8047 11.3623 10.797C11.4084 10.7892 11.4525 10.7724 11.4921 10.7475L14.3132 8.98089C14.4042 9.25509 14.4957 9.52509 14.5638 9.80411C14.8301 10.7807 14.9319 11.7954 14.865 12.806C14.7307 14.5877 14.0071 15.9751 12.8288 16.7144C12.2206 17.0873 11.5237 17.2897 10.8108 17.3003H10.7204C10.0075 17.2899 9.31045 17.0876 8.70237 16.7144C7.52285 15.9751 6.79936 14.5877 6.66562 12.8054C6.59936 11.7954 6.70056 10.7807 6.96682 9.80411C7.57852 7.54488 8.84225 5.51719 10.5994 3.97558C11.3573 3.30797 12.2207 2.77136 13.1542 2.38769C14.8096 1.72813 16.3711 1.77162 17.5505 2.5103C18.7301 3.24959 19.4524 4.63756 19.5867 6.41813C19.6547 7.42703 19.555 8.44024 19.2915 9.41634H19.2909Z" fill="#1AD6D6"/>
<path d="M44.6208 7.7867C42.175 7.7867 40.1991 9.70074 40.1991 12.1355C40.1991 14.5538 42.175 16.4365 44.6208 16.4365C47.0822 16.4365 49.0581 14.5568 49.0581 12.136C49.0581 9.70199 47.0852 7.78731 44.6208 7.78731V7.7867ZM44.6208 14.1631C43.4936 14.1631 42.6358 13.2492 42.6358 12.1191C42.6358 10.989 43.4936 10.0614 44.6208 10.0614C45.7642 10.0614 46.6219 10.9915 46.6219 12.1222C46.6219 13.2516 45.7642 14.1666 44.6208 14.1666V14.1631ZM54.5714 4.44663H50.0725C50.024 4.4458 49.9757 4.45481 49.9307 4.47311C49.8857 4.49141 49.8448 4.51863 49.8105 4.55314C49.7761 4.58764 49.7492 4.62872 49.731 4.67394C49.7129 4.71915 49.7041 4.76755 49.705 4.81627V15.8138C49.7015 15.8641 49.7083 15.9147 49.7252 15.9623C49.7422 16.0099 49.7687 16.0534 49.8033 16.0902C49.8377 16.127 49.8795 16.1562 49.9258 16.176C49.9723 16.1957 50.0222 16.2057 50.0725 16.2051H54.5714C58.1719 16.2051 60.6738 13.8042 60.6738 10.3114C60.6738 6.79736 58.1719 4.44663 54.5714 4.44663ZM54.678 13.8822H52.2159V6.76354H54.678C56.6708 6.76354 58.0442 8.25781 58.0442 10.3065C58.0442 12.3215 56.6708 13.8822 54.678 13.8822ZM69.6298 8.02347H67.9376C67.8441 8.031 67.7566 8.07289 67.6918 8.14109C67.6271 8.2093 67.5898 8.29903 67.587 8.39311V8.89623C67.2015 8.25781 66.3309 7.7879 65.2473 7.7879C63.137 7.7879 61.1611 9.44949 61.1611 12.1034C61.1611 14.7429 63.1195 16.4347 65.2304 16.4347C66.3183 16.4347 67.2063 15.9654 67.5918 15.3269V15.847C67.5921 15.9403 67.6292 16.0297 67.6948 16.0958C67.7604 16.162 67.8493 16.1995 67.9425 16.2003H69.634C69.6805 16.2014 69.7268 16.193 69.77 16.1756C69.8133 16.1582 69.8525 16.1322 69.8854 16.0991C69.9183 16.0661 69.9442 16.0267 69.9614 15.9834C69.9786 15.94 69.9869 15.8936 69.9858 15.847V8.39311C69.9873 8.34519 69.9792 8.29746 69.9618 8.25275C69.9446 8.20804 69.9186 8.16725 69.8853 8.13279C69.8521 8.09833 69.8123 8.0709 69.7683 8.05213C69.7243 8.03335 69.677 8.0236 69.6292 8.02347H69.6298ZM65.6942 14.1817C64.5737 14.1817 63.7328 13.3181 63.7328 12.1209C63.7328 10.9239 64.5743 10.0614 65.6942 10.0614C66.8147 10.0614 67.6563 10.9226 67.6563 12.1198C67.6563 13.3174 66.8159 14.1806 65.6942 14.1806V14.1817ZM79.1243 4.44663H77.4328C77.3855 4.44518 77.3383 4.4532 77.2941 4.47022C77.2499 4.48723 77.2095 4.5129 77.1753 4.54574C77.1411 4.57857 77.1137 4.61791 77.0949 4.66146C77.0759 4.705 77.0659 4.75188 77.0653 4.79936V8.86301C76.675 8.25781 75.7918 7.7879 74.687 7.7879C72.593 7.7879 70.6508 9.44949 70.6508 12.1034C70.6508 14.7429 72.6099 16.4347 74.7201 16.4347C75.8081 16.4347 76.6298 15.9654 77.0816 15.3269V15.847C77.0816 16.0415 77.2388 16.1991 77.4328 16.2003H79.1243C79.1709 16.2015 79.2173 16.1932 79.2605 16.1757C79.3037 16.1584 79.343 16.1324 79.3759 16.0994C79.4088 16.0663 79.4347 16.0269 79.4519 15.9835C79.4692 15.9401 79.4774 15.8937 79.4762 15.847V4.80177C79.4776 4.75493 79.4696 4.70829 79.4525 4.66468C79.4353 4.62107 79.4095 4.58143 79.3766 4.54819C79.3436 4.51494 79.3043 4.48878 79.2609 4.47131C79.2175 4.45385 79.1711 4.44545 79.1243 4.44663ZM75.1894 14.2023C74.0737 14.2023 73.2394 13.3301 73.2394 12.1198C73.2394 10.9099 74.0767 10.0378 75.1894 10.0378C76.3015 10.0378 77.1394 10.9099 77.1394 12.1198C77.1394 13.3301 76.3057 14.2023 75.1894 14.2023ZM88.6171 4.44663H86.9286C86.8812 4.44518 86.834 4.45319 86.7897 4.47019C86.7454 4.4872 86.705 4.51285 86.6707 4.54567C86.6364 4.57849 86.6089 4.61782 86.5899 4.66137C86.5708 4.70492 86.5607 4.75182 86.5599 4.79936V8.86301C86.1743 8.25781 85.2864 7.7879 84.1822 7.7879C82.0876 7.7879 80.146 9.44949 80.146 12.1034C80.146 14.7429 82.1057 16.4347 84.2153 16.4347C85.3039 16.4347 86.1238 15.9654 86.5767 15.3269V15.847C86.5771 15.9405 86.6142 16.03 86.6801 16.0963C86.746 16.1624 86.8353 16.1999 86.9286 16.2003H88.6171C88.6636 16.2015 88.7099 16.1932 88.7531 16.1757C88.7963 16.1584 88.8355 16.1324 88.8683 16.0993C88.9011 16.0662 88.9268 16.0268 88.944 15.9834C88.961 15.94 88.9692 15.8936 88.9677 15.847V4.80177C88.9694 4.75499 88.9615 4.70837 88.9445 4.66477C88.9275 4.62117 88.9018 4.58151 88.869 4.54824C88.8361 4.51497 88.7968 4.4888 88.7535 4.47132C88.7102 4.45385 88.6638 4.44544 88.6171 4.44663ZM84.6822 14.2023C83.5659 14.2023 82.7322 13.3301 82.7322 12.1198C82.7322 10.9099 83.5695 10.0378 84.6822 10.0378C85.7942 10.0378 86.6322 10.9099 86.6322 12.1198C86.6322 13.3301 85.8009 14.2023 84.6852 14.2023H84.6822ZM97.8783 8.59544L95.3542 17.2748C94.8675 18.8186 93.78 19.7427 92.089 19.7427C91.3193 19.7427 90.6193 19.585 90.0711 19.2704C89.7506 19.0874 89.4854 18.9201 89.4854 18.6525C89.4854 18.4864 89.539 18.4007 89.6363 18.2449L90.1372 17.4923C90.2792 17.2821 90.3836 17.2138 90.5354 17.2138C90.6559 17.2166 90.7729 17.2572 90.8693 17.3298C91.1836 17.5345 91.4765 17.7103 91.922 17.7103C92.4425 17.7103 92.8399 17.543 93.0542 16.9215L93.2711 16.2009H92.2497C91.9979 16.2009 91.8595 16.0505 91.797 15.8482L89.5381 8.59544C89.4542 8.30975 89.5318 8.02406 89.9497 8.02406H91.7292C91.9461 8.02406 92.0988 8.09836 92.1934 8.41062L93.8622 14.2512L95.422 8.41062C95.4711 8.20889 95.6059 8.02406 95.8738 8.02406H97.5613C97.8943 8.02347 97.9952 8.25781 97.8783 8.59544ZM39.5617 11.1769V15.8132C39.5625 15.8637 39.5531 15.9139 39.5341 15.9607C39.5151 16.0075 39.4869 16.05 39.4513 16.0857C39.4156 16.1215 39.3731 16.1497 39.3264 16.1686C39.2796 16.1875 39.2296 16.1969 39.1792 16.1961H37.7834C37.733 16.197 37.6829 16.1877 37.6362 16.1688C37.5894 16.1498 37.547 16.1216 37.5113 16.0859C37.4757 16.0502 37.4475 16.0076 37.4287 15.9607C37.4099 15.9139 37.4006 15.8637 37.4015 15.8132V14.5961C36.5147 15.7183 34.9738 16.425 33.2304 16.425C29.9569 16.425 27.3984 13.9558 27.3984 10.4407C27.3984 6.7877 30.1605 4.26965 33.6497 4.26965C36.2256 4.26965 38.2846 5.38039 39.1991 7.61396C39.2248 7.67294 39.2391 7.73627 39.2412 7.80059C39.2412 7.90629 39.1714 7.98602 38.9484 8.06332L37.3183 8.69269C37.2201 8.73369 37.11 8.73564 37.0105 8.69812C36.9231 8.64642 36.8547 8.56784 36.8153 8.47404C36.2304 7.35847 35.1888 6.60167 33.5864 6.60167C31.5081 6.60167 30.019 8.22882 30.019 10.3391C30.019 12.3848 31.2864 14.067 33.6454 14.067C34.8864 14.067 35.8762 13.4811 36.3376 12.8366H34.8647C34.8143 12.8374 34.7642 12.828 34.7175 12.809C34.6708 12.7899 34.6284 12.7617 34.5928 12.7259C34.5572 12.6902 34.5291 12.6476 34.5102 12.6007C34.4913 12.5539 34.482 12.5037 34.4828 12.4532V11.1932C34.4821 11.1427 34.4915 11.0926 34.5104 11.0458C34.5293 10.999 34.5575 10.9565 34.593 10.9208C34.6286 10.8851 34.671 10.8569 34.7177 10.838C34.7643 10.819 34.8143 10.8096 34.8647 10.8103H39.1785C39.2281 10.8077 39.2775 10.8153 39.324 10.8326C39.3704 10.8499 39.4129 10.8765 39.4487 10.9109C39.4845 10.9452 39.5129 10.9865 39.5323 11.0323C39.5516 11.078 39.5614 11.1273 39.5611 11.1769H39.5617Z" fill="#1AD6D6"/>
<path d="M97.9228 6.30704V6.19469C97.9228 6.18684 97.9254 6.179 97.9299 6.17295C97.9362 6.16794 97.9433 6.16516 97.9505 6.1651H98.6629C98.671 6.1651 98.6781 6.16812 98.6835 6.17295C98.6888 6.179 98.6915 6.18684 98.6915 6.19469V6.30704C98.6915 6.3146 98.6888 6.3219 98.6835 6.32758C98.6808 6.33018 98.6781 6.33222 98.6746 6.33357C98.671 6.33492 98.6674 6.33555 98.6629 6.33542H98.4031V7.04028C98.4031 7.04788 98.3996 7.05508 98.3942 7.06045C98.3888 7.06583 98.3817 7.06898 98.3737 7.06927H98.2388C98.2353 7.06926 98.2317 7.0685 98.229 7.06705C98.2254 7.06559 98.2228 7.06348 98.2201 7.06082C98.2174 7.05819 98.2147 7.05501 98.213 7.05149C98.2121 7.04795 98.2112 7.04415 98.2112 7.04028V6.33542H97.9505C97.9469 6.33569 97.9433 6.33515 97.9397 6.33382C97.9362 6.33248 97.9326 6.3304 97.9299 6.32771C97.9272 6.32501 97.9254 6.32178 97.9237 6.31821C97.9228 6.31465 97.9219 6.31083 97.9219 6.30704H97.9228ZM99.1683 6.19047L99.363 6.64346L99.5585 6.19047C99.5612 6.18251 99.5665 6.17574 99.5737 6.17114C99.5826 6.16683 99.5915 6.16474 99.6005 6.1651H99.8263C99.8299 6.16484 99.8344 6.16538 99.8371 6.16667C99.8406 6.16797 99.8442 6.17 99.8469 6.17262C99.8496 6.17525 99.8513 6.17841 99.8531 6.1819C99.854 6.18539 99.8549 6.18914 99.8549 6.19288V7.04089C99.8549 7.04458 99.8549 7.04828 99.8531 7.05176C99.8522 7.05524 99.8505 7.05842 99.8478 7.06108C99.8451 7.06376 99.8415 7.06587 99.8388 7.06728C99.8353 7.06869 99.8317 7.06937 99.8281 7.06927H99.7013C99.6978 7.06948 99.6933 7.06889 99.6897 7.06754C99.6862 7.06619 99.6826 7.0641 99.6799 7.06142C99.6772 7.05881 99.6755 7.0556 99.6737 7.05205C99.6728 7.0485 99.6719 7.04468 99.6719 7.04089V6.40066L99.463 6.86573C99.4594 6.87469 99.454 6.88265 99.4469 6.88868C99.4388 6.89309 99.4299 6.89518 99.421 6.89472H99.3174C99.3085 6.89514 99.2996 6.89304 99.2924 6.88868C99.2844 6.88308 99.279 6.87525 99.2763 6.86633L99.0683 6.40126V7.0415C99.0683 7.04885 99.0647 7.05591 99.0603 7.06142C99.0549 7.06617 99.0478 7.06893 99.0406 7.06927H98.9112C98.9076 7.06925 98.904 7.06853 98.9013 7.06718C98.8978 7.06583 98.8951 7.06388 98.8924 7.06142C98.8897 7.05881 98.8879 7.0556 98.8862 7.05205C98.8853 7.0485 98.8844 7.04468 98.8853 7.04089V6.19288C98.8844 6.18914 98.8853 6.18539 98.8871 6.1819C98.8879 6.17841 98.8906 6.17525 98.8933 6.17262C98.896 6.17 98.8987 6.16797 98.9022 6.16667C98.9058 6.16538 98.9094 6.16484 98.9129 6.1651H99.1326C99.1406 6.1651 99.1504 6.16692 99.1576 6.17114C99.1629 6.17658 99.1665 6.18322 99.1683 6.19047Z" fill="#1AD6D6"/>
</svg>

<svg xmlns="http://www.w3.org/2000/svg" width="304.762" height="64" fill="none" viewBox="0 0 100 21"><path fill="#1AD6D6" d="M18.569.878c-2.237-1.4-5.183-1.07-7.81.587C8.142-.19 5.195-.521 2.96.878-.574 3.093-1.003 8.797 2 13.618c2.215 3.555 5.68 5.638 8.764 5.6 3.084.038 6.548-2.045 8.763-5.6C22.53 8.796 22.104 3.093 18.57.878ZM3.626 12.6A11.558 11.558 0 0 1 2.24 9.416a9.123 9.123 0 0 1-.301-3.002c.134-1.78.857-3.167 2.037-3.907 1.179-.74 2.737-.782 4.397-.123.252.102.499.216.74.343A13.579 13.579 0 0 0 6.727 5.6c-1.824 2.927-2.382 6.186-1.745 8.782a11.91 11.91 0 0 1-1.357-1.78Zm15.665-3.185a11.584 11.584 0 0 1-1.387 3.185c-.395.636-.85 1.233-1.358 1.784.57-2.329.183-5.18-1.213-7.855a.351.351 0 0 0-.504-.138L10.476 9.12a.356.356 0 0 0-.113.491l.639 1.024a.354.354 0 0 0 .49.114l2.821-1.767c.091.274.183.544.25.823.267.977.369 1.991.302 3.002-.134 1.782-.858 3.17-2.036 3.908a3.974 3.974 0 0 1-2.018.586h-.09a3.968 3.968 0 0 1-2.019-.586c-1.18-.739-1.903-2.126-2.036-3.909a9.138 9.138 0 0 1 .3-3 11.885 11.885 0 0 1 3.633-5.83 9.097 9.097 0 0 1 2.555-1.587c1.656-.66 3.217-.616 4.396.122 1.18.74 1.902 2.128 2.037 3.908a9.145 9.145 0 0 1-.296 2.998ZM44.62 7.787c-2.445 0-4.42 1.914-4.42 4.349 0 2.418 1.975 4.3 4.42 4.3 2.462 0 4.438-1.88 4.438-4.3 0-2.434-1.973-4.349-4.437-4.349Zm0 6.376c-1.126 0-1.984-.914-1.984-2.044s.858-2.058 1.985-2.058c1.143 0 2 .93 2 2.061 0 1.13-.857 2.045-2 2.045v-.004Zm9.951-9.716h-4.498a.36.36 0 0 0-.368.37v10.997a.368.368 0 0 0 .22.362c.047.02.097.03.148.03h4.498c3.6 0 6.103-2.402 6.103-5.895 0-3.514-2.502-5.864-6.103-5.864Zm.107 9.435h-2.462V6.764h2.462c1.993 0 3.366 1.494 3.366 3.542 0 2.016-1.373 3.576-3.366 3.576ZM69.63 8.023h-1.692a.381.381 0 0 0-.351.37v.503c-.386-.638-1.256-1.108-2.34-1.108-2.11 0-4.086 1.661-4.086 4.315 0 2.64 1.959 4.332 4.07 4.332 1.087 0 1.975-.47 2.36-1.108v.52a.355.355 0 0 0 .352.353h1.691a.342.342 0 0 0 .352-.353V8.393a.356.356 0 0 0-.218-.34.357.357 0 0 0-.139-.03Zm-3.936 6.159c-1.12 0-1.961-.864-1.961-2.061s.841-2.06 1.961-2.06 1.962.862 1.962 2.059-.84 2.06-1.962 2.06v.002Zm13.43-9.735h-1.691a.356.356 0 0 0-.368.352v4.064c-.39-.605-1.273-1.075-2.378-1.075-2.094 0-4.036 1.661-4.036 4.315 0 2.64 1.959 4.332 4.07 4.332 1.087 0 1.909-.47 2.36-1.108v.52c0 .194.158.352.352.353h1.691a.34.34 0 0 0 .252-.1.345.345 0 0 0 .1-.253V4.802a.347.347 0 0 0-.215-.33.343.343 0 0 0-.137-.025Zm-3.935 9.755c-1.115 0-1.95-.872-1.95-2.082s.838-2.082 1.95-2.082c1.113 0 1.95.872 1.95 2.082s-.833 2.082-1.95 2.082Zm13.428-9.755H86.93a.357.357 0 0 0-.37.352v4.064c-.385-.605-1.273-1.075-2.377-1.075-2.094 0-4.036 1.661-4.036 4.315 0 2.64 1.96 4.332 4.07 4.332 1.088 0 1.908-.47 2.36-1.108v.52a.356.356 0 0 0 .353.353h1.688a.339.339 0 0 0 .327-.217.344.344 0 0 0 .024-.136V4.802a.343.343 0 0 0-.35-.355Zm-3.935 9.755c-1.116 0-1.95-.872-1.95-2.082s.838-2.082 1.95-2.082 1.95.872 1.95 2.082-.831 2.082-1.947 2.082h-.003Zm13.196-5.607-2.524 8.68c-.486 1.544-1.574 2.468-3.265 2.468-.77 0-1.47-.158-2.018-.473-.32-.183-.586-.35-.586-.617 0-.167.054-.252.151-.408l.501-.753c.142-.21.247-.278.398-.278.12.003.238.043.334.116.315.205.608.38 1.053.38.52 0 .918-.167 1.132-.788l.217-.721H92.25c-.252 0-.39-.15-.453-.353l-2.259-7.253c-.084-.285-.006-.57.412-.57h1.78c.216 0 .369.073.463.386l1.67 5.84 1.559-5.84c.05-.202.184-.387.452-.387h1.687c.333 0 .434.234.317.571Zm-58.316 2.582v4.636a.376.376 0 0 1-.383.383h-1.396a.375.375 0 0 1-.382-.383v-1.217c-.886 1.122-2.427 1.829-4.17 1.829-3.274 0-5.833-2.47-5.833-5.984 0-3.653 2.762-6.171 6.252-6.171 2.576 0 4.635 1.11 5.55 3.344.025.059.04.122.041.187 0 .105-.07.185-.293.262l-1.63.63a.417.417 0 0 1-.307.005.473.473 0 0 1-.196-.224c-.585-1.116-1.626-1.872-3.229-1.872-2.078 0-3.567 1.627-3.567 3.737 0 2.046 1.267 3.728 3.626 3.728 1.241 0 2.231-.586 2.693-1.23h-1.473a.375.375 0 0 1-.382-.384v-1.26a.38.38 0 0 1 .382-.383h4.313a.362.362 0 0 1 .383.367ZM97.923 6.307v-.112c0-.008.002-.016.007-.022a.034.034 0 0 1 .02-.008h.713a.03.03 0 0 1 .02.008.033.033 0 0 1 .008.022v.112a.03.03 0 0 1-.008.02.026.026 0 0 1-.02.008h-.26v.705a.029.029 0 0 1-.009.02.03.03 0 0 1-.02.01h-.135c-.004 0-.007-.002-.01-.003a.027.027 0 0 1-.009-.006.035.035 0 0 1-.007-.01.046.046 0 0 1-.002-.01v-.706h-.26l-.011-.001a.029.029 0 0 1-.01-.006.033.033 0 0 1-.006-.01.046.046 0 0 1-.002-.011Zm1.245-.117.195.453.195-.453a.037.037 0 0 1 .016-.019.056.056 0 0 1 .026-.006h.226c.004 0 .008 0 .011.002a.029.029 0 0 1 .01.006.034.034 0 0 1 .006.009l.002.01v.849c0 .004 0 .007-.002.01a.02.02 0 0 1-.005.01.038.038 0 0 1-.01.006.027.027 0 0 1-.01.002h-.127a.029.029 0 0 1-.021-.008.033.033 0 0 1-.006-.009.046.046 0 0 1-.002-.011V6.4l-.209.465a.058.058 0 0 1-.016.023.049.049 0 0 1-.026.006h-.104a.045.045 0 0 1-.025-.006.042.042 0 0 1-.016-.023l-.208-.465v.64a.033.033 0 0 1-.008.02.032.032 0 0 1-.02.008h-.129c-.003 0-.007 0-.01-.002a.028.028 0 0 1-.009-.006.031.031 0 0 1-.006-.009.023.023 0 0 1 0-.011v-.848c-.002-.004 0-.008.001-.011a.02.02 0 0 1 .006-.01.025.025 0 0 1 .02-.007h.22c.008 0 .017.002.025.006a.042.042 0 0 1 .01.02Z"/></svg>
